public/illustrations/_cheese.svg

<svg width="293" height="159" viewBox="0 0 293 159" fill="none" xmlns="http://www.w3.org/2000/svg">
<path d="M86.1614 112.249C81.7014 110.436 77.2556 108.737 72.9514 107.166C71.7762 106.939 70.771 106.189 70.1338 105.254C69.4967 104.32 69.1993 103.088 69.4259 101.899C69.7232 95.7255 70.1622 89.5382 70.3321 83.3792C70.417 78.3812 70.1055 73.3125 70.3037 68.3145C70.417 64.4634 70.7568 60.4564 71.394 56.6619C72.0736 53.2497 73.7018 50.2198 76.1654 47.6996C84.1934 39.1903 94.3027 34.617 105.049 30.9641C114.224 28.0475 123.654 25.9803 133.31 24.6635C142.173 23.191 151.277 22.4548 160.367 22.6105C171.637 22.8512 182.794 22.2141 193.965 23.5025C201.243 24.4228 208.521 25.3432 215.826 26.3768C220.768 26.9714 225.61 27.8492 230.381 29.1094C246.551 33.4136 262.578 38.4965 276.666 48.0536C281.041 51.0269 284.991 54.7081 288.135 58.9981C291.618 63.8829 292.495 69.3905 292.665 75.238C293.09 89.4816 291.164 103.428 288.97 117.261C288.658 118.705 288.743 120.234 289.055 121.593C289.296 122.457 289.437 123.462 289.296 124.241C289.168 125.147 288.644 125.997 288.106 126.705C286.124 129.027 284.113 131.08 281.961 133.161C274.443 139.815 265.736 144.332 256.518 147.886C255.187 148.452 253.885 149.146 252.71 149.939C252.455 149.967 252.37 150.236 252.115 150.279C248.165 151.326 244.229 152.388 240.123 153.195C237.517 153.804 234.87 154.045 232.378 154.512C188.359 162.342 145.33 157.882 103.35 142.435C100.801 141.514 98.3096 140.184 95.6477 139.405C92.3063 138.329 90.1683 135.809 88.0445 133.288C87.2658 132.241 86.6003 131.193 86.303 129.947C86.0056 128.701 85.8358 127.455 85.9066 126.167C86.2039 121.777 86.3738 117.417 86.5579 113.169L86.4163 112.164L86.1614 112.192V112.249ZM89.8993 48.1243L97.0353 48.9314C123.611 51.8056 150.144 54.2975 176.621 58.2053C178.717 58.5592 180.925 58.8848 183.063 59.4937C183.969 59.6211 184.932 60.1309 185.668 60.7963C186.405 61.4618 186.9 62.283 187.155 63.2741C187.297 64.2793 187.424 65.2845 186.9 66.1199C186.518 67.0685 185.852 67.7906 185.031 68.2862C183.417 69.5321 181.477 70.3109 179.524 70.9622C170.009 73.2842 160.593 75.4787 151.051 77.5459C137.543 80.5475 124.121 83.2801 110.571 86.0269C109.311 86.1968 108.235 86.7349 106.394 87.2446C108.291 88.0091 109.396 88.618 110.613 89.0993C117.438 91.3506 124.291 93.8707 131.299 95.5839C149.153 100.03 167.503 102.507 185.98 103.031C198.567 103.484 211.267 103.017 223.84 101.545C232.123 100.412 240.335 98.8971 248.49 96.8866C256.051 95.2159 263.215 92.4408 269.969 88.5755C273.268 86.5933 276.397 84.2429 279.229 81.5528C284.425 76.6256 283.745 67.9039 279.979 63.6988C278.931 62.5661 278.011 61.4193 276.978 60.3998C273.155 56.7044 268.893 53.5895 264.093 51.1826C252.228 44.7546 239.4 40.6486 226.219 37.7177C205.165 33.2011 183.672 31.1624 162.151 31.6862C151.192 31.9128 140.347 32.8896 129.586 34.617C120.199 36.0328 110.953 38.454 101.962 41.8521C97.7007 43.3246 93.6372 45.42 89.8993 47.9827V48.1243ZM282.627 91.5771C278.252 94.0973 274.018 96.8441 269.587 98.982C258.203 104.504 246.069 107.321 233.709 109.389C219.706 111.569 205.66 112.588 191.431 112.249C176.593 112.107 161.854 110.804 147.327 108.327C130.053 105.325 113.346 100.851 97.4742 93.1911C97.0777 93.1203 96.8087 93.0213 96.4406 93.0779C95.8176 105.297 95.1805 117.402 94.5292 129.494C110.613 136.87 127.675 142.067 145.09 145.167C145.274 141.826 145.5 138.853 145.614 135.894C145.727 133.968 145.854 132.028 146.222 130.06C146.336 129.027 146.845 128.064 147.78 127.427C148.587 126.804 149.564 126.421 150.697 126.393C151.716 126.393 152.806 126.874 153.542 127.54C154.293 128.333 154.675 129.296 154.817 130.301C154.987 131.561 155.029 132.821 154.958 134.11C154.76 138.23 154.548 142.336 154.449 146.187C154.732 146.399 155.128 146.47 155.411 146.697C156.077 146.866 156.714 146.895 157.379 147.065C173.662 149.302 190.086 149.868 206.425 148.905C222.41 148.112 238.197 144.927 253.163 139.433C261.573 136.488 269.261 131.986 276.029 126.336C277.289 125.275 278.224 123.731 278.634 122.018C280.97 111.994 281.876 101.899 283.052 91.7753L283.023 91.5204V91.393L282.641 91.5629L282.627 91.5771ZM86.7561 103.484C86.9826 100.511 87.0534 98.2033 87.1384 96.0228C87.2516 93.0637 87.2092 90.0055 87.4357 87.0322C87.4074 85.8853 87.7755 84.8092 88.3985 83.8323C89.0215 82.8554 89.8285 82.105 90.8763 81.4537C92.7594 80.3068 94.7982 80.2785 96.6671 79.8963C107.456 77.5176 118.16 75.4221 128.949 73.0434C139.129 70.8772 149.436 68.6968 159.588 66.4172C160.211 66.3323 160.792 65.8651 161.386 65.5394C149.366 63.6138 137.656 62.0281 125.862 60.8246C112.369 59.3521 98.7768 58.0212 85.1703 56.5628C80.7528 56.0248 80.0449 56.4921 79.6485 61.0228C79.7051 61.4051 79.7617 61.9006 79.7193 62.4245C79.606 66.2756 79.5068 70.24 79.4077 74.0912C79.1812 82.6854 78.9547 91.2656 78.7565 100.115L86.7419 103.357V103.484H86.7561Z" fill="#102185"/>
<path d="M12.777 42.8428C13.9097 42.6871 14.9575 42.9278 15.9203 43.4375C16.8831 43.9473 17.6476 44.8675 17.9308 45.9719C19.3466 48.8461 21.2439 51.5221 23.4668 53.7733C26.0153 56.4918 29.2577 58.7288 32.7549 60.0314C34.7938 60.8951 36.7901 61.518 38.829 62.3959C43.5721 64.4205 44.6765 67.7337 41.8164 72.0804C37.3706 78.8199 34.8645 86.5788 34.1849 94.72C33.9583 96.8013 34.1141 98.8118 33.7601 100.907C33.123 104.702 29.4134 106.486 26.5959 104.574C25.6048 103.824 24.8119 102.776 24.288 101.7C23.2402 99.6755 22.4332 97.4809 21.3855 95.4562C20.1254 92.8227 18.8511 90.0477 16.5291 87.9522C14.6035 86.0408 12.0408 84.993 9.47809 84.9647C7.80737 84.9363 6.26406 84.7665 4.67829 84.4692C0.303267 83.2798 -1.16923 80.0375 0.96873 76.0306C2.71024 72.8591 4.45178 69.8008 6.20745 66.7567C7.36846 64.9444 8.10471 62.9198 8.33125 60.8384C8.68521 58.743 8.51531 56.5909 7.97728 54.4954C7.1844 51.5363 8.07636 48.7329 8.74182 46.0852C8.99667 45.1507 9.4073 44.4569 10.1011 43.8623C10.7807 43.2535 11.6443 43.0128 12.5222 42.8853L12.777 42.857V42.8428ZM26.2135 84.9506L32.415 69.6592C27.2047 67.946 22.4757 65.1427 18.2847 61.6313L12.0832 76.0165C18.1998 76.8377 22.4049 80.4764 26.341 84.9222H26.2135V84.9506Z" fill="#102185"/>
<path d="M44.7191 41.03C44.6625 40.6477 44.6058 40.1521 44.804 39.7415C45.6536 34.7718 43.9262 30.5384 41.2078 26.5598C38.5318 22.8361 37.1584 18.4328 37.1867 13.9587C37.1867 12.0473 37.5549 10.0793 38.2062 8.32362C38.5743 7.24757 39.3388 6.38382 40.3016 5.85995C41.2502 5.35024 42.383 5.19452 43.4307 5.43521C43.9546 5.49185 44.3793 5.8175 44.804 6.14314C45.2288 6.46879 45.5404 6.80858 45.8519 7.27581C46.1633 7.74305 46.2341 8.23864 46.4323 8.73419C46.5031 9.22974 46.5739 9.7394 46.3898 10.2774C45.5403 15.2471 47.2535 19.3531 49.8587 23.4733C53.2285 28.4996 54.701 34.5594 53.8656 40.5485C53.6249 42.5024 53.0869 44.2298 51.3029 45.1218C48.3437 46.8067 45.2855 45.051 44.7333 41.0441L44.7191 41.03Z" fill="#102185"/>
<path d="M65.4468 31.0346C64.6539 28.9675 63.8469 26.787 62.9266 24.734C62.1479 22.7943 61.1426 21.0245 60.4913 19.0706C58.3392 13.6195 59.302 8.50825 61.808 3.55274C62.3177 2.58996 62.9832 1.85376 63.6486 1.13167C64.3283 0.522854 65.1778 0.154703 66.0556 0.0414344C66.9335 -0.0718344 67.8397 0.0414033 68.6609 0.452003C69.4962 0.975871 70.105 1.65551 70.3457 2.51919C70.7139 3.36871 70.6005 4.40229 70.459 5.18101C70.105 6.3845 69.6378 7.58802 69.1564 8.67823C68.137 11.4958 67.7689 14.3558 69.1989 17.3574C70.0484 18.9007 70.6431 20.4865 71.4926 22.0298C72.8801 24.6491 73.6589 27.6083 73.8005 30.5249C73.9704 31.7851 73.7721 33.0876 73.4182 34.2769C73.1633 35.2114 72.6252 35.9193 71.7899 36.4149C71.0961 36.8963 70.1192 37.2786 69.2131 37.1512C68.3211 37.1512 67.3724 36.7688 66.6644 36.2308C65.9565 35.6928 65.461 34.8575 65.192 33.8805L64.8097 31.1196L65.192 31.063L65.4468 31.0346Z" fill="#102185"/>
<path d="M225.737 51.2111C226.771 51.3244 227.96 51.5509 229.008 51.7774C232.222 52.8676 235.309 53.972 238.409 55.0906C246.352 58.0922 254.295 60.9664 262.238 63.9539C263.583 64.4069 264.688 65.0299 265.82 65.8936C266.514 66.3042 266.996 67.0122 267.236 67.8758C267.463 68.6121 267.463 69.504 267.18 70.3111C267.038 71.104 266.613 71.7978 265.934 72.3924C265.254 72.9871 264.518 73.2278 263.767 73.3269C262.394 73.5109 261.063 73.1852 259.746 72.8596C248.547 68.5129 237.22 64.1945 226.02 59.8478C225.213 59.5788 224.265 59.1966 223.557 58.6586C222.863 58.248 222.254 57.5542 221.886 56.7188C221.518 55.8693 221.518 54.9773 221.787 54.1702C222.311 52.4429 223.613 51.6217 225.851 51.1828H225.723L225.737 51.2111Z" fill="#102185"/>
<path d="M244.752 72.4905C245.304 76.4974 241.694 79.046 238.296 77.5876C227.578 73.0569 216.846 68.3845 206.113 63.7263C204.896 63.2591 203.791 62.6361 202.8 61.8857C202.092 61.3477 201.611 60.6398 201.356 59.7902C201.243 58.9124 201.115 58.0346 201.512 57.2134C201.781 56.4063 202.446 55.6842 203.168 55.3303C203.862 54.8489 204.74 54.7357 205.66 54.8631C206.694 54.9764 207.642 55.3586 208.591 55.7409C218.714 59.7195 228.838 63.698 238.99 67.804C240.476 68.3703 241.864 69.1916 243.152 70.1685C243.761 70.8481 244.384 71.6551 244.752 72.5046V72.4905Z" fill="#102185"/>
<path d="M118.854 114.032C118.684 116.482 118.429 120.22 118.174 123.957C118.146 124.722 117.877 125.529 117.339 126.237C116.801 126.945 116.22 127.412 115.484 127.639C114.748 127.865 113.997 127.964 113.233 127.95C112.44 127.809 111.774 127.511 111.194 127.086C110.613 126.662 110.16 126.081 109.806 125.359C109.452 124.637 109.353 123.887 109.495 123.108C109.509 119.526 109.679 116.057 109.948 112.446C110.16 109.346 112.072 107.434 114.649 107.59C117.211 107.618 118.471 109.36 118.967 113.891L118.854 114.032Z" fill="#102185"/>
<path d="M213.646 124.283C213.589 127.61 213.646 130.796 213.533 133.755C213.618 134.378 213.433 134.916 213.136 135.468C212.952 136.006 212.527 136.573 212.173 136.87C211.72 137.309 211.253 137.635 210.644 137.847C210.035 138.059 209.54 138.13 208.889 138.088C207.727 137.988 206.623 137.38 205.731 136.473C204.967 135.553 204.542 134.335 204.514 133.189C204.471 130.13 204.443 127.072 204.528 123.986C204.613 122.697 205.094 121.607 205.859 120.616C206.17 120.064 206.736 119.596 207.345 119.384C207.94 119.044 208.563 118.959 209.214 119.002C209.837 118.917 210.517 119.2 211.069 119.511C211.621 119.823 212.06 120.262 212.4 120.857C212.924 121.933 213.462 123.009 213.745 124.127L213.632 124.269L213.646 124.283Z" fill="#102185"/>
</svg>

<svg xmlns="http://www.w3.org/2000/svg" width="293" height="159" fill="none" viewBox="0 0 293 159"><path fill="#102185" d="M86.161 112.249a393 393 0 0 0-13.21-5.083c-1.175-.227-2.18-.977-2.817-1.912a4.53 4.53 0 0 1-.708-3.355c.297-6.174.736-12.36.906-18.52.085-4.998-.226-10.067-.028-15.065.113-3.85.453-7.858 1.09-11.652.68-3.412 2.308-6.442 4.771-8.962 8.028-8.51 18.138-13.083 28.884-16.736 9.175-2.916 18.605-4.984 28.261-6.3 8.863-1.473 17.967-2.21 27.057-2.054 11.27.241 22.427-.396 33.598.893 7.278.92 14.556 1.84 21.861 2.874 4.942.594 9.784 1.472 14.555 2.732 16.17 4.305 32.197 9.387 46.285 18.945 4.375 2.973 8.325 6.654 11.469 10.944 3.483 4.885 4.36 10.393 4.53 16.24.425 14.244-1.501 28.19-3.695 42.023-.312 1.444-.227 2.973.085 4.332.241.864.382 1.869.241 2.648-.128.906-.652 1.756-1.19 2.464-1.982 2.322-3.993 4.375-6.145 6.456-7.518 6.654-16.225 11.171-25.443 14.725a23 23 0 0 0-3.808 2.053c-.255.028-.34.297-.595.34-3.95 1.047-7.886 2.109-11.992 2.916-2.606.609-5.253.85-7.745 1.317-44.019 7.83-87.048 3.37-129.028-12.077-2.549-.921-5.04-2.251-7.702-3.03-3.342-1.076-5.48-3.596-7.603-6.117-.78-1.047-1.445-2.095-1.742-3.341s-.467-2.492-.396-3.78c.297-4.39.467-8.75.65-12.998l-.14-1.005-.256.028zM89.9 48.124l7.136.807c26.576 2.875 53.109 5.367 79.586 9.274 2.096.354 4.304.68 6.442 1.289.906.127 1.869.637 2.605 1.302a4.9 4.9 0 0 1 1.487 2.478c.142 1.005.269 2.01-.255 2.846-.382.948-1.048 1.67-1.869 2.166-1.614 1.246-3.554 2.025-5.507 2.676a1119 1119 0 0 1-28.473 6.584c-13.508 3.001-26.93 5.734-40.48 8.48-1.26.17-2.336.709-4.177 1.219 1.897.764 3.002 1.373 4.219 1.854 6.825 2.252 13.678 4.772 20.686 6.485 17.854 4.446 36.204 6.923 54.681 7.447 12.587.453 25.287-.014 37.86-1.486 8.283-1.133 16.495-2.648 24.65-4.658a76 76 0 0 0 21.479-8.311 53.4 53.4 0 0 0 9.26-7.023c5.196-4.927 4.516-13.65.75-17.854-1.048-1.133-1.968-2.28-3.001-3.3-3.823-3.695-8.085-6.81-12.885-9.216-11.865-6.428-24.693-10.534-37.874-13.465a273.6 273.6 0 0 0-64.068-6.032 236 236 0 0 0-32.565 2.931 135 135 0 0 0-27.624 7.235c-4.261 1.473-8.325 3.568-12.063 6.13zm192.728 43.453c-4.375 2.52-8.609 5.267-13.04 7.405-11.384 5.522-23.518 8.339-35.878 10.407-14.003 2.18-28.049 3.199-42.278 2.86a278 278 0 0 1-44.104-3.922c-17.274-3.002-33.981-7.476-49.853-15.136-.396-.07-.665-.17-1.033-.113-.623 12.219-1.26 24.324-1.912 36.416 16.084 7.376 33.146 12.573 50.561 15.673.184-3.341.41-6.314.524-9.273.113-1.926.24-3.866.608-5.834.114-1.033.623-1.996 1.558-2.633a4.9 4.9 0 0 1 2.917-1.034c1.019 0 2.109.481 2.845 1.147.751.793 1.133 1.756 1.275 2.761.17 1.26.212 2.52.141 3.809-.198 4.12-.41 8.226-.509 12.077.283.212.679.283.962.51.666.169 1.303.198 1.968.368 16.283 2.237 32.707 2.803 49.046 1.84 15.985-.793 31.772-3.978 46.738-9.472 8.41-2.945 16.098-7.447 22.866-13.097 1.26-1.061 2.195-2.605 2.605-4.318 2.336-10.024 3.242-20.119 4.418-30.243l-.029-.255v-.127l-.382.17zm-195.87 11.907c.226-2.973.296-5.28.381-7.461.114-2.96.071-6.017.298-8.99-.029-1.148.34-2.224.962-3.2.624-.978 1.43-1.728 2.478-2.38 1.883-1.146 3.922-1.175 5.791-1.557 10.789-2.378 21.493-4.474 32.282-6.853 10.18-2.166 20.487-4.346 30.639-6.626.623-.085 1.204-.552 1.798-.878-12.02-1.925-23.73-3.51-35.524-4.714-13.493-1.473-27.085-2.804-40.692-4.262-4.417-.538-5.125-.07-5.522 4.46.057.382.114.878.071 1.401-.113 3.852-.212 7.816-.311 11.667-.227 8.594-.453 17.175-.651 26.024l7.985 3.242v.127zM12.777 42.843c1.133-.156 2.18.085 3.143.594a4.04 4.04 0 0 1 2.01 2.535 30.1 30.1 0 0 0 5.537 7.801c2.548 2.719 5.79 4.956 9.288 6.258 2.039.864 4.035 1.487 6.074 2.365 4.743 2.025 5.847 5.338 2.987 9.684-4.445 6.74-6.952 14.499-7.631 22.64-.227 2.081-.07 4.092-.425 6.187-.637 3.795-4.347 5.579-7.164 3.667-.991-.75-1.784-1.798-2.308-2.874-1.048-2.025-1.855-4.22-2.902-6.244-1.26-2.633-2.535-5.408-4.857-7.504-1.925-1.911-4.488-2.959-7.05-2.987a28 28 0 0 1-4.8-.496C.302 83.28-1.17 80.038.968 76.031a504 504 0 0 1 5.238-9.274c1.161-1.813 1.898-3.837 2.124-5.919.354-2.095.184-4.247-.354-6.343-.793-2.959.1-5.762.765-8.41.255-.934.665-1.628 1.36-2.223.679-.608 1.542-.85 2.42-.977l.255-.028zM26.214 84.95l6.201-15.292c-5.21-1.713-9.94-4.516-14.13-8.028l-6.202 14.385c6.117.822 10.322 4.46 14.258 8.906h-.128zM44.72 41.03c-.057-.382-.114-.878.084-1.288.85-4.97-.878-9.204-3.596-13.182a21.32 21.32 0 0 1-4.021-12.601c0-1.912.368-3.88 1.02-5.635a4.45 4.45 0 0 1 2.095-2.464 4.53 4.53 0 0 1 3.129-.425c.524.057.948.383 1.373.708a4.5 4.5 0 0 1 1.048 1.133c.311.467.382.963.58 1.458.071.496.142 1.005-.042 1.543-.85 4.97.864 9.076 3.469 13.196 3.37 5.027 4.842 11.086 4.007 17.075-.241 1.954-.78 3.682-2.563 4.574-2.96 1.685-6.017-.071-6.57-4.078zM65.447 31.035c-.793-2.067-1.6-4.248-2.52-6.301-.78-1.94-1.784-3.71-2.436-5.663-2.152-5.452-1.189-10.563 1.317-15.518.51-.963 1.175-1.7 1.84-2.421a4.47 4.47 0 0 1 2.408-1.09c.877-.114 1.784 0 2.605.41.835.524 1.444 1.204 1.685 2.067.368.85.254 1.883.113 2.662a29 29 0 0 1-1.303 3.497c-1.019 2.818-1.387 5.678.043 8.68.85 1.543 1.444 3.128 2.294 4.672 1.387 2.62 2.166 5.578 2.308 8.495.17 1.26-.029 2.563-.383 3.752a3.45 3.45 0 0 1-1.628 2.138c-.694.481-1.67.864-2.577.736-.892 0-1.84-.382-2.549-.92-.707-.538-1.203-1.373-1.472-2.35l-.382-2.761.382-.057z"/><path fill="#102185" d="M225.737 51.211c1.034.113 2.223.34 3.271.566a512 512 0 0 1 9.401 3.314c7.943 3.001 15.886 5.875 23.829 8.863 1.345.453 2.45 1.076 3.582 1.94.694.41 1.176 1.118 1.416 1.982a4 4 0 0 1-.056 2.435c-.142.793-.567 1.487-1.246 2.081-.68.595-1.416.836-2.167.935-1.373.184-2.704-.142-4.021-.467-11.199-4.347-22.526-8.665-33.726-13.012-.807-.27-1.755-.651-2.463-1.19-.694-.41-1.303-1.104-1.671-1.94a3.53 3.53 0 0 1-.099-2.548c.524-1.727 1.826-2.548 4.064-2.987h-.128zM244.752 72.49c.552 4.007-3.058 6.556-6.456 5.098-10.718-4.531-21.45-9.203-32.183-13.862a13.5 13.5 0 0 1-3.313-1.84 4.03 4.03 0 0 1-1.444-2.096c-.113-.878-.241-1.755.156-2.577.269-.807.934-1.529 1.656-1.883.694-.481 1.572-.594 2.492-.467 1.034.113 1.982.496 2.931.878 10.123 3.978 20.247 7.957 30.399 12.063 1.486.566 2.874 1.388 4.162 2.364.609.68 1.232 1.487 1.6 2.337zM118.854 114.032c-.17 2.45-.425 6.188-.68 9.925a4.03 4.03 0 0 1-.835 2.28c-.538.708-1.119 1.175-1.855 1.402a7.2 7.2 0 0 1-2.251.311 4.8 4.8 0 0 1-2.039-.864c-.581-.424-1.034-1.005-1.388-1.727a3.54 3.54 0 0 1-.311-2.251c.014-3.582.184-7.051.453-10.662.212-3.1 2.124-5.012 4.701-4.856 2.562.028 3.822 1.77 4.318 6.301zM213.646 124.283c-.057 3.327 0 6.513-.113 9.472.085.623-.1 1.161-.397 1.713-.184.538-.609 1.105-.963 1.402-.453.439-.92.765-1.529.977a4.1 4.1 0 0 1-1.755.241c-1.162-.1-2.266-.708-3.158-1.615-.764-.92-1.189-2.138-1.217-3.284-.043-3.059-.071-6.117.014-9.203.085-1.289.566-2.379 1.331-3.37a2.83 2.83 0 0 1 1.486-1.232c.595-.34 1.218-.425 1.869-.382.623-.085 1.303.198 1.855.509a3.5 3.5 0 0 1 1.331 1.346c.524 1.076 1.062 2.152 1.345 3.27l-.113.142z"/></svg>
